assets/luts/placeholder.cube
TITLE "Placeholder LUT"
LUT_3D_SIZE 2
0.0 0.0 0.0
0.5 0.0 0.0
0.0 0.5 0.0
0.5 0.5 0.0
0.0 0.0 0.5
0.5 0.0 0.5
0.0 0.5 0.5
0.5 0.5 0.5
